svg/book_alphabet.svg

<?xml version="1.0" encoding="UTF-8"?><!DOCTYPE svg PUBLIC "-//W3C//DTD SVG 1.1//EN" "http://www.w3.org/Graphics/SVG/1.1/DTD/svg11.dtd"><svg xmlns="http://www.w3.org/2000/svg" xmlns:xlink="http://www.w3.org/1999/xlink" version="1.1" id="mdi-book-alphabet" width="24" height="24" viewBox="0 0 24 24"><path d="M5.81,2C4.83,2.09 4,3 4,4V20C4,21.05 4.95,22 6,22H18C19.05,22 20,21.05 20,20V4C20,2.89 19.1,2 18,2H12V9L9.5,7.5L7,9V2H6C5.94,2 5.87,2 5.81,2M12,13H13A1,1 0 0,1 14,14V18H13V16H12V18H11V14A1,1 0 0,1 12,13M12,14V15H13V14H12M15,15H18V16L16,19H18V20H15V19L17,16H15V15Z" /></svg>

<svg xmlns="http://www.w3.org/2000/svg" viewBox="0 0 24 24"><path d="M5.81 2C4.83 2.09 4 3 4 4v16c0 1.05.95 2 2 2h12c1.05 0 2-.95 2-2V4a2 2 0 0 0-2-2h-6v7L9.5 7.5 7 9V2zM12 13h1a1 1 0 0 1 1 1v4h-1v-2h-1v2h-1v-4a1 1 0 0 1 1-1m0 1v1h1v-1zm3 1h3v1l-2 3h2v1h-3v-1l2-3h-2z"/></svg>
